svg/aws-ec2-i2.svg

<?xml version="1.0" encoding="UTF-8"?>
<svg xmlns="http://www.w3.org/2000/svg" xmlns:xlink="http://www.w3.org/1999/xlink" width="32" height="32" viewBox="0 0 32 32">
<path fill-rule="evenodd" fill="rgb(83.137255%, 35.686275%, 2.745098%)" fill-opacity="1" d="M 6 26 L 26 26 L 26 6 L 6 6 Z M 27.332031 8.667969 L 27.332031 11.332031 L 30.667969 11.332031 L 30.667969 12.667969 L 27.332031 12.667969 L 27.332031 15.332031 L 30.667969 15.332031 L 30.667969 16.667969 L 27.332031 16.667969 L 27.332031 19.332031 L 30.667969 19.332031 L 30.667969 20.667969 L 27.332031 20.667969 L 27.332031 23.332031 L 30.667969 23.332031 L 30.667969 24.667969 L 27.332031 24.667969 L 27.332031 26.667969 C 27.332031 27.035156 27.035156 27.332031 26.667969 27.332031 L 24.667969 27.332031 L 24.667969 30.667969 L 23.332031 30.667969 L 23.332031 27.332031 L 20.667969 27.332031 L 20.667969 30.667969 L 19.332031 30.667969 L 19.332031 27.332031 L 16.667969 27.332031 L 16.667969 30.667969 L 15.332031 30.667969 L 15.332031 27.332031 L 12.667969 27.332031 L 12.667969 30.667969 L 11.332031 30.667969 L 11.332031 27.332031 L 8.667969 27.332031 L 8.667969 30.667969 L 7.332031 30.667969 L 7.332031 27.332031 L 5.332031 27.332031 C 4.964844 27.332031 4.667969 27.035156 4.667969 26.667969 L 4.667969 24.667969 L 1.332031 24.667969 L 1.332031 23.332031 L 4.667969 23.332031 L 4.667969 20.667969 L 1.332031 20.667969 L 1.332031 19.332031 L 4.667969 19.332031 L 4.667969 16.667969 L 1.332031 16.667969 L 1.332031 15.332031 L 4.667969 15.332031 L 4.667969 12.667969 L 1.332031 12.667969 L 1.332031 11.332031 L 4.667969 11.332031 L 4.667969 8.667969 L 1.332031 8.667969 L 1.332031 7.332031 L 4.667969 7.332031 L 4.667969 5.332031 C 4.667969 4.964844 4.964844 4.667969 5.332031 4.667969 L 7.332031 4.667969 L 7.332031 1.332031 L 8.667969 1.332031 L 8.667969 4.667969 L 11.332031 4.667969 L 11.332031 1.332031 L 12.667969 1.332031 L 12.667969 4.667969 L 15.332031 4.667969 L 15.332031 1.332031 L 16.667969 1.332031 L 16.667969 4.667969 L 19.332031 4.667969 L 19.332031 1.332031 L 20.667969 1.332031 L 20.667969 4.667969 L 23.332031 4.667969 L 23.332031 1.332031 L 24.667969 1.332031 L 24.667969 4.667969 L 26.667969 4.667969 C 27.035156 4.667969 27.332031 4.964844 27.332031 5.332031 L 27.332031 7.332031 L 30.667969 7.332031 L 30.667969 8.667969 Z M 19.460938 18.265625 L 16.203125 18.265625 C 16.8125 17.722656 17.398438 17.15625 17.960938 16.5625 C 18.386719 16.105469 18.695312 15.699219 18.886719 15.339844 C 19.074219 14.984375 19.171875 14.628906 19.171875 14.28125 C 19.171875 13.921875 19.089844 13.609375 18.925781 13.347656 C 18.761719 13.085938 18.523438 12.875 18.242188 12.746094 C 17.953125 12.605469 17.613281 12.535156 17.222656 12.535156 C 16.503906 12.535156 15.847656 12.777344 15.253906 13.261719 L 15.253906 14.179688 C 15.574219 13.953125 15.894531 13.78125 16.207031 13.660156 C 16.523438 13.539062 16.8125 13.476562 17.082031 13.476562 C 17.386719 13.476562 17.621094 13.558594 17.789062 13.714844 C 17.957031 13.875 18.042969 14.097656 18.042969 14.382812 C 18.042969 14.625 17.964844 14.890625 17.808594 15.175781 C 17.652344 15.460938 17.375 15.839844 16.96875 16.304688 C 16.566406 16.773438 15.933594 17.441406 15.074219 18.3125 L 15.074219 19.152344 L 19.460938 19.152344 Z M 12.742188 19.152344 L 13.878906 19.152344 L 13.878906 12.683594 L 12.742188 12.683594 Z M 12.742188 19.152344 "/>
</svg>

<svg role="img" viewBox="0 0 32 32" xmlns="http://www.w3.org/2000/svg"><path d="M6 26h20V6H6ZM27.332 8.668v2.664h3.336v1.336h-3.336v2.664h3.336v1.336h-3.336v2.664h3.336v1.336h-3.336v2.664h3.336v1.336h-3.336v2a.664.664 0 0 1-.664.664h-2v3.336h-1.336v-3.336h-2.664v3.336h-1.336v-3.336h-2.664v3.336h-1.336v-3.336h-2.664v3.336h-1.336v-3.336H8.668v3.336H7.332v-3.336h-2a.664.664 0 0 1-.664-.664v-2H1.332v-1.336h3.336v-2.664H1.332v-1.336h3.336v-2.664H1.332v-1.336h3.336v-2.664H1.332v-1.336h3.336V8.668H1.332V7.332h3.336v-2c0-.367.297-.664.664-.664h2V1.332h1.336v3.336h2.664V1.332h1.336v3.336h2.664V1.332h1.336v3.336h2.664V1.332h1.336v3.336h2.664V1.332h1.336v3.336h2c.367 0 .664.297.664.664v2h3.336v1.336Zm-7.871 9.598h-3.258a30 30 0 0 0 1.758-1.703q.639-.686.926-1.223c.187-.356.285-.711.285-1.059q0-.54-.246-.933a1.6 1.6 0 0 0-.684-.602q-.434-.21-1.02-.21-1.077 0-1.968.726v.918q.482-.34.953-.52.472-.181.875-.183c.305 0 .54.082.707.238q.253.24.254.668 0 .364-.234.793c-.157.285-.434.664-.84 1.129q-.605.701-1.895 2.008v.84h4.387Zm-6.719.886h1.137v-6.468h-1.137Zm0 0" fill="rgb(83.137256%, 35.686275%, 2.745098%)" fill-rule="evenodd"/></svg>
